!!!COM: Chopin, Frederic
!!!CDT: 1810///-1849///
!!!OTL: Prelude in E-flat Minor, Op. 28, No. 14
!!!OPS: Op. 28
!!!ONM: No. 14
!!!OMD: Allegro
!!!ODT: 1836///-1839///
!!!PDT: 1839///
!!!ENC: Craig Stuart Sapp
!!!AIN: piano
!!!EEV: 15 March 2001
!!!YEC: Copyright 2001 by Craig Stuart Sapp
!!!YEN: United States of America
**kern	**kern
*Ipiano	*Ipiano
*lh	*rh
*clefF4	*clefF4
*k[b-e-a-d-g-c-]	*k[b-e-a-d-g-c-]
*e-:	*e-:
*M4/4	*M4/4
*MM164	*MM164
12EE-	12E-
12BB-	12B-
12GG-	12G-
12C-	12c-
12EE-	12E-
12C-	12c-
12DDn	12Dn
12C-	12c-
12FF	12F
12BB-	12B-
12DD	12D
12BB-	12B-
=2	=2
12EE-	12E-
12BB-	12B-
12GG-	12G-
12C-	12c-
12EE-	12E-
12C-	12c-
12DDn	12Dn
12C-	12c-
12FF	12F
12BB-	12B-
12DD	12D
12BB-	12B-
=3	=3
12EE-	12E-
12BB-	12B-
12GG-	12G-
12C-	12c-
12EE-	12E-
12Cn	12cn
12FF	12F
12C	12c
12AA-	12A-
12E-	12e-
12BB--	12B--
12D-	12d-
=4	=4
12GG-	12G-
12D-	12d-
12BB-	12B-
12E-	12e-
12GG-	12G-
12En	12en
12AAn	12An
12E	12e
12Cn	12cn
12G-	12g-
12D-	12d-
12F	12f
=5	=5
12BB-	12B-
12F	12f
12D-	12d-
12G-	12g-
12BB-	12B-
12G-	12g-
12AAn	12An
12G-	12g-
12Cn	12cn
12F	12f
12AA	12A
12F	12f
=6	=6
12BB-	12B-
12F	12f
12D-	12d-
12G-	12g-
12BB--	12B--
12G-	12g-
12AA-	12A-
12G-	12g-
12Dn	12dn
12F	12f
12C-	12c-
12F	12f
=7	=7
12AA-	12A-
12F-	12f-
12C-	12c-
12Dn	12dn
12AA-	12A-
12D	12d
12GGn	12Gn
12D	12d
12BB-	12B-
12Fn	12fn
12GG	12G
12E-	12e-
=8	=8
12FF	12F
12D-	12d-
12GGn	12Gn
12BBn	12Bn
12FF	12F
12BB	12B
12EEn	12En
12BB	12B
12GG	12G
12D-	12d-
12EE	12E
12Cn	12cn
=9	=9
12GG-	12G-
12E--	12e--
12BB--	12B--
12Cn	12cn
12GG-	12G-
12C	12c
12FF	12F
12C	12c
12AA-	12A-
12E-	12e-
12FF	12F
12D-	12d-
=10	=10
12EE-	12E-
12C-	12c-
12FF	12F
12AAn	12An
12EE-	12E-
12AA	12A
12DDn	12Dn
12AA	12A
12FF	12F
12BB-	12B-
12GG-	12G-
12BB-	12B-
=11	=11
12EE-	12E-
12BB-	12B-
12GG-	12G-
12C-	12c-
12EE-	12E-
12C-	12c-
12DDn	12Dn
12C-	12c-
12FF	12F
12BB-	12B-
12DD	12D
12BB-	12B-
=12	=12
12EE-	12E-
12BB-	12B-
12GG-	12G-
12C-	12c-
12GGn	12Gn
12C-	12c-
12DDn	12Dn
12C-	12c-
12GG-	12G-
12BB-	12B-
12FF	12F
12BB-	12B-
=13	=13
12EE-	12E-
12BB-	12B-
12GG-	12G-
12C-	12c-
12EE-	12E-
12C-	12c-
12FF	12F
12D-	12d-
12AAn	12An
12D-	12d-
12FF	12F
12D-	12d-
=14	=14
12GG-	12G-
12D-	12d-
12BB--	12B--
12E--	12e--
12GG-	12G-
12E--	12e--
12BB-	12B-
12E-	12e-
12GG-	12G-
12F-	12f-
12GGn	12Gn
12Fn	12fn
=15	=15
12AA-	12A-
12C-	12c-
12GG-	12G-
12C-	12c-
12FF	12F
12C-	12c-
12EE-	12E-
12AA-	12A-
12DDn	12Dn
12GG-	12G-
12EE-	12E-
12GG-	12G-
=16	=16
12AAA-	12AA-
12GG-	12G-
12EE-	12E-
12GG-	12G-
12AAA-	12AA-
12GG-	12G-
12BBB-	12BB-
12GG-	12G-
12EE-	12E-
12GG-	12G-
12BBB-	12BB-
12GG-	12G-
=17	=17
12EE-	12E-
12BB-	12B-
12EE-	12E-
12C-	12c-
12EE-	12E-
12D-	12d-
12EE-	12E-
12BB-	12B-
12EE-	12E-
12C-	12c-
12EE-	12E-
12D-	12d-
=18	=18
12EE-	12E-
12D-	12d-
12EE-	12E-
12C-	12c-
12EE-	12E-
12BB-	12B-
12EE-	12E-
12AA-	12A-
12EE-	12E-
12BB-	12B-
12EE-	12E-
12BB-	12B-
=19	=19
4EEE-'	4E-'
4r	4r
2r	2r
==	==
*-	*-
